X: 37503
T: Sligo Maid, The
R: reel
M: 4/4
K: Edorian
|:E2FE (3F^GA Bc|dBAF EDBA|D2FD ADFD|ABDE FE E2|
E2FE (3F^GA Bc|dBAF EDBD|F3D E2 DB|ABDE FE E2:|
|:Beed e2de|fdec dcBA|Bddc d2dB|ABde fded|
Beed e2de|fdec dcBA|Bd (3dcd BAFB|AFdF FEE2:|

